!!!OTL: Schlechte Besserung.
!!!OTL-incipit: ICH GING IN EINER NACHT
!!!ARE: Europa, Mitteleuropa, Deutschland, Niederrhein
!!!SCT: Z1181
!!!TXL: @@DE
!!!YEM: Copyright 1995, estate of Helmut Schaffrath.
**kern	**text
*ICvox	*
*M2/4	*
*k[b-e-]	*
*B-:	*
!LO:TX:a:t=Vorſänger.	!
!LO:TX:a:t=Vom Niederrhein.	!
{8f	Jch
=1	=1
8b-/	ging
8f	in
8d	ei-
8f	-ner,
=2	=2
!LO:TX:a:t=Alle.	!
8b-/	Gebt
8b-/	wohl
8b-/}	acht!
!LO:TX:a:t=Vorſänger.	!
{8b-/	Jch
=3	=3
8cc	ging
8b-	in
8a	ei-
8b-/	-ner,
=4	=4
!LO:TX:a:t=Alle.	!
8cc/	Hübſch
8cc/	fein
8cc/}	ſacht!
!LO:TX:a:t=Vorſänger.	!
{8cc	Jch
=5	=5
8dd	ging
8cc	in
8b-	ei-
8cc	-ner
=6	=6
4dd	Nacht!
8r}	.
{8b-	Die
=7	=7
8b-	Nacht,
8dd	ſie
8dd	war
8ff	ſo
=8	=8
(8ffL	fin-
8ee-J)	.
4ee-}	-ſter;
=9	=9
!LO:TX:a:t=Alle.	!
{8cc/	Hat
16cc/	man
16cc/	be-
8cc/	-dacht,
16b-/	was
16cc/	die
=10	=10
8dd/	Lie-
8dd/	-be
8dd/}	macht?
!LO:TX:a:t=Vorſänger.	!
{8cc	daß
=11	=11
8b-	man
8b-	kein
8cc	Sternlein
8cc	.
=12	=12
4ff	ſah;
8r}	.
!LO:TX:a:t=Alle.	!
{8ee-/	daß
=13	=13
8dd/	man
8dd/	kein
8cc/	Sternlein
8cc/	.
=14	=14
4b-/	ſah.
8r}	.
==	==
!!!AGN: Liebes - Lied
!!!ONB: ESAC (Essen Associative Code) Database: ZUCCAL
!!!AMT: simple duple
!!!AIN: vox
!!!EED: Helmut Schaffrath
!!!EEV: 1.0
!!!GTL: V. Lieder der Minne.
!!!URL-scan: https://www.digitale-sammlungen.de/de/view/bsb11160573?page=376
!!!ENC: Anna Maria Matuszewska
!!!EEV: 2025/02/05
*-	*-
